packages/react/src/components/base/Icon/assets/icon-alert.svg

<svg width="24" height="24" viewBox="0 0 24 24" xmlns="http://www.w3.org/2000/svg" fill="currentColor"> <g clip-path="url(#clip0_2001_46026)"> <path d="M21.6697 6.99846C21.5103 7.08182 21.333 7.12525 21.1531 7.12502C20.9468 7.12537 20.7444 7.06897 20.5679 6.96199C20.3915 6.85501 20.2479 6.70157 20.1528 6.51846C19.469 5.16338 18.4327 4.01759 17.1528 3.20159C17.0233 3.125 16.9105 3.02321 16.821 2.90225C16.7315 2.78129 16.6672 2.6436 16.6319 2.49735C16.5966 2.35109 16.591 2.19924 16.6154 2.05077C16.6398 1.90231 16.6937 1.76025 16.774 1.63299C16.8543 1.50574 16.9592 1.39588 17.0827 1.30992C17.2062 1.22396 17.3457 1.16364 17.4929 1.13254C17.6401 1.10144 17.7921 1.10018 17.9398 1.12884C18.0875 1.1575 18.2279 1.2155 18.3528 1.2994C19.9684 2.33186 21.2802 3.77563 22.1534 5.48252C22.2212 5.61382 22.2625 5.75719 22.2749 5.90444C22.2873 6.05169 22.2705 6.19993 22.2256 6.3407C22.1807 6.48148 22.1085 6.61202 22.0131 6.72488C21.9177 6.83774 21.801 6.93071 21.6697 6.99846ZM4.84719 6.51846C5.53101 5.16338 6.56734 4.01759 7.84719 3.20159C7.97957 3.12662 8.09537 3.02558 8.18759 2.90458C8.27981 2.78357 8.34653 2.64512 8.38371 2.4976C8.42089 2.35008 8.42776 2.19654 8.40391 2.04629C8.38006 1.89603 8.32598 1.75217 8.24494 1.62342C8.16391 1.49466 8.0576 1.38367 7.93244 1.29718C7.80728 1.21068 7.66588 1.15046 7.51679 1.12018C7.3677 1.08989 7.21402 1.09015 7.06503 1.12096C6.91604 1.15176 6.77485 1.21247 6.65 1.2994C5.03441 2.33186 3.72266 3.77563 2.84937 5.48252C2.71224 5.74735 2.68586 6.05579 2.77605 6.34005C2.86623 6.62431 3.06559 6.86113 3.33031 6.99846C3.48972 7.08182 3.66698 7.12525 3.84687 7.12502C4.0532 7.12537 4.25565 7.06897 4.43207 6.96199C4.6085 6.85501 4.7521 6.70157 4.84719 6.51846ZM21.1137 15.7388C21.3253 16.0165 21.4552 16.3479 21.4886 16.6954C21.5221 17.043 21.4578 17.393 21.3031 17.706C21.1483 18.019 20.9092 18.2826 20.6127 18.4671C20.3163 18.6515 19.9742 18.7495 19.625 18.75H16.6072C16.5118 19.7733 16.0378 20.7241 15.2781 21.4163C14.5184 22.1085 13.5277 22.4921 12.5 22.4921C11.4723 22.4921 10.4816 22.1085 9.72187 21.4163C8.96217 20.7241 8.48822 19.7733 8.39281 18.75H5.375C5.02558 18.75 4.68312 18.6524 4.38623 18.4682C4.08934 18.2839 3.84985 18.0204 3.69475 17.7073C3.53966 17.3942 3.47515 17.0439 3.50849 16.6961C3.54183 16.3483 3.67169 16.0167 3.88344 15.7388C4.55562 14.8641 5.35812 13.2431 5.37219 10.4944C5.37293 8.60436 6.12446 6.79203 7.46145 5.45609C8.79844 4.12016 10.6114 3.37006 12.5014 3.37081C14.3914 3.37155 16.2038 4.12308 17.5397 5.46007C18.8756 6.79706 19.6257 8.60998 19.625 10.5C19.6391 13.2431 20.4416 14.8641 21.1137 15.7388ZM14.3375 18.75H10.6625C10.7486 19.1739 10.9785 19.555 11.3134 19.8287C11.6483 20.1024 12.0675 20.2519 12.5 20.2519C12.9325 20.2519 13.3517 20.1024 13.6866 19.8287C14.0215 19.555 14.2514 19.1739 14.3375 18.75ZM18.9069 16.5C18.1419 15.2813 17.3891 13.3528 17.375 10.5056C17.3754 9.86546 17.2496 9.23146 17.005 8.63985C16.7603 8.04825 16.4016 7.51063 15.9491 7.05768C15.4967 6.60473 14.9595 6.24533 14.3682 6C13.7769 5.75467 13.143 5.62821 12.5028 5.62784C11.8626 5.62747 11.2286 5.7532 10.637 5.99785C10.0454 6.2425 9.50779 6.60128 9.05484 7.0537C8.60189 7.50613 8.24249 8.04334 7.99716 8.63466C7.75183 9.22598 7.62537 9.85983 7.625 10.5C7.61094 13.3519 6.85812 15.2813 6.09312 16.5H18.9069Z"/> </g> <defs> <clipPath id="clip0_2001_46026"> <rect width="24" height="24"/> </clipPath> </defs> </svg>

<svg viewBox="0 0 24 24" xmlns="http://www.w3.org/2000/svg" aria-hidden="true" fill="currentColor"><g clip-path="url(#a)"><path d="M21.67 6.998a1.125 1.125 0 0 1-1.517-.48 8.45 8.45 0 0 0-3-3.316 1.125 1.125 0 1 1 1.2-1.903 10.8 10.8 0 0 1 3.8 4.184 1.125 1.125 0 0 1-.483 1.515m-16.823-.48a8.45 8.45 0 0 1 3-3.316A1.125 1.125 0 1 0 6.65 1.299a10.8 10.8 0 0 0-3.8 4.184 1.125 1.125 0 0 0 1.997 1.035m16.267 9.22a1.874 1.874 0 0 1-1.489 3.012h-3.018a4.125 4.125 0 0 1-8.214 0H5.375a1.875 1.875 0 0 1-1.492-3.011c.673-.875 1.475-2.496 1.49-5.245a7.126 7.126 0 1 1 14.252.006c.014 2.743.817 4.364 1.489 5.239m-6.776 3.012h-3.675a1.875 1.875 0 0 0 3.675 0m4.569-2.25c-.765-1.219-1.518-3.147-1.532-5.994a4.875 4.875 0 0 0-9.75-.006c-.014 2.852-.767 4.781-1.532 6z"/></g><defs><clipPath id="a"><path d="M0 0h24v24H0z"/></clipPath></defs></svg>
